assets/icons/luts.svg

<svg width="30" height="30" viewBox="0 0 30 30" fill="none" xmlns="http://www.w3.org/2000/svg">
<path fill-rule="evenodd" clip-rule="evenodd" d="M16.5811 17.2236C16.3493 16.6137 15.5191 16.5811 15.2238 17.1276L15.1798 17.2245L14.3064 19.531C14.1477 19.9506 13.8331 20.2899 13.432 20.4829L13.2946 20.542L10.9889 21.4163C10.3781 21.6481 10.3455 22.4783 10.892 22.7736L10.9889 22.8176L13.2954 23.6928C13.7141 23.8515 14.0543 24.1652 14.2473 24.5671L14.3064 24.7046L15.1807 27.0094C15.4116 27.6202 16.2427 27.6528 16.538 27.1063L16.582 27.0094L17.4563 24.7037C17.615 24.2842 17.9296 23.9431 18.3306 23.7519L18.4673 23.6928L20.7738 22.8176C21.3846 22.5858 21.4172 21.7547 20.8707 21.4603L20.7738 21.4163L18.469 20.542C18.0506 20.3834 17.7092 20.0701 17.5154 19.6668L17.4563 19.5302L16.5811 17.2236ZM15.8813 19.6016L16.0559 20.0607C16.2073 20.4605 16.4363 20.8264 16.7298 21.1372C17.0232 21.4481 17.3753 21.6978 17.7657 21.8719L17.9367 21.9424L18.3959 22.1161L17.9367 22.2915C17.1931 22.5729 16.5792 23.1182 16.2119 23.8233L16.1264 24.0013L16.0559 24.1723L15.8813 24.6315L15.7077 24.1732C15.4259 23.4295 14.8804 22.8156 14.175 22.4483L13.997 22.362L13.826 22.2915L13.3668 22.117L13.826 21.9424C14.5693 21.6605 15.1831 21.1154 15.5508 20.4106L15.6372 20.2326L15.7077 20.0616L15.8813 19.6016ZM7.38063 8.53432L7.33656 8.63127L6.3371 11.2665C6.14427 11.7754 5.76124 12.1894 5.26889 12.4211L5.11906 12.4846L2.48379 13.484C1.87301 13.7158 1.8404 14.5461 2.38684 14.8413L2.48379 14.8854L5.11906 15.8857C5.628 16.078 6.0421 16.4608 6.27364 16.9531L6.3371 17.1038L7.33656 19.739C7.56748 20.3489 8.3986 20.3816 8.69385 19.8351L8.73792 19.7382L9.73739 17.1029C9.93128 16.5917 10.3156 16.1792 10.8047 15.9483L10.9545 15.8857L13.5916 14.8854C14.2015 14.6536 14.2341 13.8225 13.6876 13.5281L13.5907 13.484L10.9563 12.4855C10.4474 12.2923 10.0334 11.9089 9.80172 11.4164L9.73739 11.2665L8.73704 8.63127C8.50524 8.02049 7.675 7.98788 7.37975 8.53432H7.38063ZM26.2373 18.0627C26.0348 18.0627 25.8342 18.1026 25.6471 18.1801C25.4599 18.2576 25.2899 18.3712 25.1467 18.5145C25.0035 18.6577 24.8899 18.8277 24.8123 19.0148C24.7348 19.202 24.6949 19.4025 24.6949 19.6051C24.6949 19.8076 24.7348 20.0082 24.8123 20.1953C24.8899 20.3825 25.0035 20.5525 25.1467 20.6957C25.2899 20.8389 25.4599 20.9525 25.6471 21.0301C25.8342 21.1076 26.0348 21.1475 26.2373 21.1475C26.6464 21.1475 27.0387 20.985 27.3279 20.6957C27.6172 20.4065 27.7797 20.0141 27.7797 19.6051C27.7797 19.196 27.6172 18.8037 27.3279 18.5145C27.0387 18.2252 26.6464 18.0627 26.2373 18.0627ZM8.03724 11.0083L8.3369 11.7971C8.50503 12.2407 8.75925 12.6466 9.08492 12.9915C9.41059 13.3363 9.80127 13.6134 10.2345 13.8066L10.4248 13.8859L11.2137 14.1838L10.424 14.4835C9.59373 14.7979 8.9093 15.4086 8.5026 16.1977L8.41446 16.3819L8.3369 16.5714L8.03724 17.3603L7.73758 16.5732C7.42361 15.7427 6.81325 15.058 6.02422 14.651L5.84001 14.5628L5.65052 14.4844L4.86082 14.1847L5.65052 13.8851C6.48034 13.5704 7.16461 12.9602 7.57188 12.1717L7.66002 11.9875L7.73846 11.798L8.03724 11.0083ZM19.9003 2.91742L19.8545 3.01877L18.6047 6.3133C18.3468 6.9943 17.8305 7.54602 17.1681 7.84862L16.9998 7.91913L13.7053 9.16802C13.0583 9.41392 13.024 10.2926 13.603 10.6046L13.7053 10.6513L17.0007 11.9029C17.6828 12.1602 18.2346 12.6785 18.5351 13.3395L18.6056 13.5078L19.8545 16.8015C20.0995 17.4484 20.9791 17.4819 21.2911 16.9037L21.3378 16.8015L22.5876 13.507C22.8467 12.8239 23.365 12.2731 24.0242 11.9716L24.1926 11.902L27.4889 10.6522C28.1349 10.4063 28.1684 9.52673 27.5902 9.21561L27.488 9.16802L24.1943 7.92001C23.5127 7.66135 22.9606 7.14414 22.6581 6.48075L22.5876 6.3133L21.3378 3.01877C21.0919 2.37186 20.2132 2.33836 19.9012 2.91654L19.9003 2.91742ZM20.5966 5.53594L21.1043 6.8756C21.3096 7.41712 21.6209 7.91222 22.02 8.33189C22.4191 8.75156 22.8979 9.08736 23.4284 9.31961L23.6311 9.40246L24.9699 9.91012L23.6303 10.4187C22.6073 10.8061 21.768 11.5648 21.2797 12.5436L21.1871 12.7411L21.1043 12.9438L20.5966 14.2834L20.089 12.9464C19.7017 11.9222 18.9422 11.0818 17.9622 10.5932L17.7648 10.5015L17.5621 10.4187L16.2233 9.91012L17.563 9.40246C18.5859 9.01402 19.425 8.25477 19.9136 7.27574L20.0061 7.07832L20.089 6.8756L20.5966 5.53594ZM11.3864 3.07959C11.0358 3.07959 10.6995 3.21887 10.4516 3.4668C10.2037 3.71473 10.0644 4.051 10.0644 4.40163C10.0644 4.75225 10.2037 5.08852 10.4516 5.33645C10.6995 5.58438 11.0358 5.72367 11.3864 5.72367C11.737 5.72367 12.0733 5.58438 12.3212 5.33645C12.5692 5.08852 12.7084 4.75225 12.7084 4.40163C12.7084 4.051 12.5692 3.71473 12.3212 3.4668C12.0733 3.21887 11.737 3.07959 11.3864 3.07959Z" fill="#485FC7"/>
</svg>

<svg width="30" height="30" fill="none" xmlns="http://www.w3.org/2000/svg"><path fill-rule="evenodd" clip-rule="evenodd" d="M16.581 17.224c-.232-.61-1.062-.643-1.357-.096l-.044.096-.874 2.307a1.74 1.74 0 0 1-.874.952l-.137.059-2.306.874c-.61.232-.644 1.062-.097 1.358l.097.044 2.306.875c.42.159.76.472.952.874l.06.138.874 2.304c.23.611 1.062.644 1.357.097l.044-.097.874-2.305c.159-.42.474-.76.875-.952l.136-.06 2.307-.874c.61-.232.643-1.063.097-1.358l-.097-.044-2.305-.874a1.744 1.744 0 0 1-.954-.875l-.059-.137-.875-2.306Zm-.7 2.378.175.459a3.238 3.238 0 0 0 1.71 1.81l.17.071.46.174-.46.175a3.236 3.236 0 0 0-1.724 1.532l-.086.178-.07.171-.175.46-.173-.459a3.238 3.238 0 0 0-1.533-1.725l-.178-.086-.171-.07-.46-.175.46-.175a3.242 3.242 0 0 0 1.725-1.531l.086-.178.07-.171.174-.46Zm-8.5-11.068-.044.097-1 2.636A2.097 2.097 0 0 1 5.27 12.42l-.15.064-2.635.999c-.611.232-.644 1.062-.097 1.357l.097.044 2.635 1c.509.193.923.576 1.155 1.068l.063.15 1 2.636c.23.61 1.062.643 1.357.096l.044-.097 1-2.635a2.1 2.1 0 0 1 1.067-1.155l.15-.062 2.637-1c.61-.232.642-1.063.096-1.358l-.097-.044-2.635-.998a2.1 2.1 0 0 1-1.154-1.07l-.065-.15-1-2.635c-.232-.61-1.062-.643-1.357-.097Zm18.856 9.529a1.542 1.542 0 1 0 0 3.085 1.542 1.542 0 0 0 0-3.085Zm-18.2-7.055.3.79a3.596 3.596 0 0 0 1.898 2.009l.19.079.789.298-.79.3a3.593 3.593 0 0 0-1.921 1.714l-.089.184-.077.19-.3.788-.3-.787a3.592 3.592 0 0 0-1.713-1.922l-.184-.088-.19-.079-.79-.3.79-.299a3.599 3.599 0 0 0 1.922-1.713l.088-.184.078-.19.3-.79ZM19.9 2.918l-.045.1-1.25 3.295a2.764 2.764 0 0 1-1.437 1.536l-.168.07-3.295 1.249c-.647.246-.681 1.125-.102 1.437l.102.046 3.296 1.252a2.755 2.755 0 0 1 1.534 1.436l.07.169 1.25 3.294c.244.646 1.124.68 1.436.102l.047-.102 1.25-3.295a2.77 2.77 0 0 1 1.436-1.535l.169-.07 3.296-1.25c.646-.246.68-1.125.101-1.436l-.102-.048-3.294-1.248a2.768 2.768 0 0 1-1.536-1.44l-.07-.167-1.25-3.294c-.246-.647-1.125-.68-1.437-.102Zm.697 2.618.507 1.34a4.352 4.352 0 0 0 2.324 2.444l.203.082 1.339.508-1.34.509a4.347 4.347 0 0 0-2.35 2.125l-.093.197-.083.203-.507 1.34-.508-1.338a4.348 4.348 0 0 0-2.127-2.353l-.197-.091-.203-.083-1.339-.509 1.34-.508a4.355 4.355 0 0 0 2.35-2.126l.093-.198.083-.202.508-1.34Zm-9.21-2.456a1.322 1.322 0 1 0 0 2.644 1.322 1.322 0 0 0 0-2.644Z" fill="#485FC7"/></svg>
